svgs/regular/calendar-range.svg

<svg xmlns="http://www.w3.org/2000/svg" viewBox="0 0 448 512"><!-- Font Awesome Pro 6.0.0-alpha2 by @fontawesome - https://fontawesome.com License - https://fontawesome.com/license (Commercial License) --><path d="M216 312H328.002C341.256 312 352 301.254 352 288V287.996C352 274.742 341.256 264 328.004 264H215.998C202.744 264 192 274.742 192 288C192 301.254 202.746 312 216 312ZM341.334 352H298.666C292.775 352 288 356.773 288 362.664V405.332C288 411.223 292.775 416 298.666 416H341.334C347.225 416 352 411.223 352 405.332V362.664C352 356.773 347.225 352 341.334 352ZM106.666 320H149.334C155.225 320 160 315.223 160 309.332V266.664C160 260.773 155.225 256 149.334 256H106.666C100.775 256 96 260.773 96 266.664V309.332C96 315.223 100.775 320 106.666 320ZM384 64H344V24C344 10.75 333.25 0 320 0S296 10.75 296 24V64H152V24C152 10.75 141.25 0 128 0S104 10.75 104 24V64H64C28.654 64 0 92.652 0 128V448C0 483.348 28.654 512 64 512H384C419.346 512 448 483.348 448 448V128C448 92.652 419.346 64 384 64ZM400 448C400 456.824 392.822 464 384 464H64C55.178 464 48 456.824 48 448V192H400V448ZM120 408H232.002C245.256 408 256 397.254 256 384V383.996C256 370.742 245.256 360 232.004 360H119.998C106.744 360 96 370.742 96 384C96 397.254 106.746 408 120 408Z"/></svg>

<svg xmlns="http://www.w3.org/2000/svg" viewBox="0 0 448 512"><!--! Font Awesome Pro 6.3.0 by @fontawesome - https://fontawesome.com License - https://fontawesome.com/license (Commercial License) Copyright 2023 Fonticons, Inc. --><path d="M152 24c0-13.3-10.7-24-24-24s-24 10.7-24 24V64H64C28.7 64 0 92.7 0 128v16 48V448c0 35.3 28.7 64 64 64H384c35.3 0 64-28.7 64-64V192 144 128c0-35.3-28.7-64-64-64H344V24c0-13.3-10.7-24-24-24s-24 10.7-24 24V64H152V24zM48 192H400V448c0 8.8-7.2 16-16 16H64c-8.8 0-16-7.2-16-16V192zm48 96a32 32 0 1 0 64 0 32 32 0 1 0 -64 0zm224 64a32 32 0 1 0 0 64 32 32 0 1 0 0-64zM192 288c0 13.3 10.7 24 24 24H328c13.3 0 24-10.7 24-24s-10.7-24-24-24H216c-13.3 0-24 10.7-24 24zm40 72H120c-13.3 0-24 10.7-24 24s10.7 24 24 24H232c13.3 0 24-10.7 24-24s-10.7-24-24-24z"/></svg>
